X: 18128
T: Humours Of Castle Comber, The
R: reel
M: 4/4
K: Gmajor
G2 BG dBBG|EAAG FAFD|G2 BG dBBG|EcAF G2 G2:|
gddc BdBG|EAAG FAFD|gddc BdBG|e2 fa/f/ g2 g2|
gddc BdBG|EAAG FAFD|gdec BdBG|ecBA G2 G2||

